public/assets/techs/apollo-client.svg

<svg width="20" height="20" viewBox="0 0 20 20" fill="none" xmlns="http://www.w3.org/2000/svg">
<g clip-path="url(#clip0_310_16)">
<path d="M10 -7.37743e-06C4.47667 -7.37743e-06 0 4.47749 0 9.99999C0 15.5233 4.47667 20 10 20C15.5225 20 20 15.5233 20 9.99999C20.0004 9.05746 19.8677 8.11959 19.6058 7.21416C19.5567 7.09493 19.4635 6.99928 19.3456 6.94716C19.2276 6.89505 19.0941 6.89052 18.9729 6.9345C18.8517 6.97849 18.7522 7.06759 18.6951 7.18322C18.6381 7.29884 18.6279 7.43203 18.6667 7.55499H18.665C18.8858 8.34083 19 9.16166 19 9.99999C19.0033 11.1824 18.772 12.3537 18.3195 13.4461C17.8671 14.5385 17.2025 15.5303 16.3642 16.3642C15.5304 17.2025 14.5385 17.8671 13.4461 18.3196C12.3537 18.772 11.1824 19.0033 10 19C8.81761 19.0032 7.64632 18.772 6.55391 18.3195C5.4615 17.8671 4.46968 17.2025 3.63583 16.3642C2.79745 15.5304 2.13279 14.5386 1.68035 13.4461C1.2279 12.3537 0.996657 11.1824 1 9.99999C0.996749 8.8176 1.22804 7.64631 1.68048 6.5539C2.13292 5.46149 2.79752 4.46967 3.63583 3.63583C4.46962 2.79744 5.46144 2.13279 6.55386 1.68034C7.64628 1.2279 8.8176 0.99665 10 0.999993C12.1467 0.999993 14.1775 1.74666 15.7983 3.11666C15.6959 3.37667 15.6857 3.66394 15.7694 3.93056C15.8532 4.19718 16.0258 4.42703 16.2585 4.58177C16.4912 4.73651 16.7699 4.80679 17.0482 4.78089C17.3265 4.75499 17.5874 4.63446 17.7876 4.43942C17.9877 4.24439 18.1149 3.98662 18.148 3.70913C18.1811 3.43163 18.1181 3.15118 17.9694 2.91455C17.8207 2.67792 17.5954 2.49941 17.331 2.40881C17.0667 2.3182 16.7792 2.32097 16.5167 2.41666C14.7051 0.854799 12.3919 -0.00301486 10 -7.37743e-06V-7.37743e-06ZM8.8 4.89999L5.3 13.985H7.49167L8.06417 12.445H11.3717L10.7725 10.7433H8.595L10.0117 6.83416L12.5317 13.9842H14.7242L11.225 4.89999H8.8Z" fill="#EEEEEE"/>
</g>
<defs>
<clipPath id="clip0_310_16">
<rect width="20" height="20" fill="white"/>
</clipPath>
</defs>
</svg>

<svg xmlns="http://www.w3.org/2000/svg" width="20" height="20" fill="none" xmlns:v="https://vecta.io/nano"><g clip-path="url(#A)"><path d="M10 0C4.477 0 0 4.477 0 10a10 10 0 0 0 10 10c5.523 0 10-4.477 10-10a10.01 10.01 0 0 0-.394-2.786.5.5 0 0 0-.633-.28.5.5 0 0 0-.306.62h-.002A9.03 9.03 0 0 1 19 10a8.94 8.94 0 0 1-2.636 6.364c-.834.838-1.826 1.503-2.918 1.955A8.94 8.94 0 0 1 10 19a8.94 8.94 0 0 1-6.364-2.636A8.94 8.94 0 0 1 1 10a8.94 8.94 0 0 1 2.636-6.364A8.94 8.94 0 0 1 10 1a8.93 8.93 0 0 1 5.798 2.117 1.22 1.22 0 0 0 .46 1.465 1.22 1.22 0 0 0 1.529-.142 1.22 1.22 0 0 0 .182-1.525 1.22 1.22 0 0 0-1.453-.498A9.96 9.96 0 0 0 10 0zM8.8 4.9l-3.5 9.085h2.192l.573-1.54h3.308l-.599-1.702H8.595l1.417-3.909 2.52 7.15h2.192L11.225 4.9H8.8z" fill="#371ea0"/></g><defs><clipPath id="A"><path fill="#fff" d="M0 0h20v20H0z"/></clipPath></defs></svg>
